assets/icons/qvision/fireplace.svg

<svg xmlns="http://www.w3.org/2000/svg" enable-background="new 0 0 24 24" height="24" viewBox="0 0 24 24" width="24"><g><rect fill="none" height="24" width="24"/></g><g><path d="M2,2v20h20V2H2z M11.86,16.96c0.76-0.24,1.4-1.04,1.53-1.63c0.13-0.56-0.1-1.05-0.2-1.6c-0.08-0.46-0.07-0.85,0.08-1.28 c0.54,1.21,2.15,1.64,1.98,3.18C15.06,17.33,13.14,18.01,11.86,16.96z M20,20h-2v-2h-2.02c0.63-0.84,1.02-1.87,1.02-3 c0-1.89-1.09-2.85-1.85-3.37C12.2,9.61,13,7,13,7c-6.73,3.57-6.02,7.47-6,8c0.03,0.96,0.49,2.07,1.23,3H6v2H4V4h16V20z"/></g></svg>

<svg width="24" height="24" viewBox="0 0 24 24" fill="none" xmlns="http://www.w3.org/2000/svg">
<g clip-path="url(#clip0_147_6468)">
<path d="M2 2V22H22V2H2ZM11.86 16.96C12.62 16.72 13.26 15.92 13.39 15.33C13.52 14.77 13.29 14.28 13.19 13.73C13.11 13.27 13.12 12.88 13.27 12.45C13.81 13.66 15.42 14.09 15.25 15.63C15.06 17.33 13.14 18.01 11.86 16.96ZM20 20H18V18H15.98C16.61 17.16 17 16.13 17 15C17 13.11 15.91 12.15 15.15 11.63C12.2 9.61 13 7 13 7C6.27 10.57 6.98 14.47 7 15C7.03 15.96 7.49 17.07 8.23 18H6V20H4V4H20V20Z" fill="#323232"/>
</g>
<defs>
<clipPath id="clip0_147_6468">
<rect width="24" height="24" fill="white"/>
</clipPath>
</defs>
</svg>
